public/avatar/hat/54.svg

<svg xmlns:xlink="http://www.w3.org/1999/xlink" height="92.9" width="100.7" xmlns="http://www.w3.org/2000/svg"><use height="36.6" transform="translate(20.3 29.8)" width="37.1" xlink:href="#a"/><defs><g id="a"><path d="M8.95 5.1q1.7-1.95-.25-2.45-1.95-.5-2.8-1.1Q5.05.9 5.3.6l1.95.35 1.35.3L9.95.9 10.5-3l.4-3.2q.15-1.75 1.3-7.5 2.15 7.1.85 15.3v.1l1.05 5.85-.55.05-.05-1.3-2.6.05-.3-1.1-.65-.5-1 .35M.75-1.3.25-.05l-1.3 1.65q-1 1-2.2 1.7l-.85.2.4-1.15q1.15-1.85-.2-3.6Q-5.05-2.8-5.8-4.5q-.7-1.55-1.75-2.95l-3.3-5.65Q-3.8-8.95.75-1.3" fill="#900" fill-rule="evenodd" transform="translate(18.35 19.95)"/><path d="M12.2-13.7q-1.15 5.75-1.3 7.5L10.5-3 9.95.9l-1.35.35-1.35-.3L5.3.6q-.25.3.6.95.85.6 2.8 1.1 1.95.5.25 2.45l-1.25.4q0-.9-.9-1.45l-.45-.2-2.35 1q-.75-.6-1.6-.35l-2.05.4-.3.25q-2.35-.5-4.3.6l-1.85-.7-1.9 1.1q-1.95-1.5-3.55.2l-.5.5-1.4-.65-.25.1 1.15-5.15q-.55-6.6 1.7-14.25l3.3 5.65Q-6.5-6.05-5.8-4.5q.75 1.7 1.9 3.25 1.35 1.75.2 3.6l-.4 1.15.85-.2q1.2-.7 2.2-1.7L.25-.05l.5-1.25Q5.7-8.45 12.2-13.7" fill="#c00" fill-rule="evenodd" transform="translate(18.35 19.95)"/><path d="m-13.7 6.3.25-.1 1.4.65.5-.5q1.6-1.7 3.55-.2l1.9-1.1 1.85.7q1.95-1.1 4.3-.6l.3-.25 2.05-.4q.85-.25 1.6.35l2.35-1 .45.2q.9.55.9 1.45l1.25-.4 1-.35.65.5.3 1.1 2.6-.05.05 1.3.55-.05 1.8-.3 1.15 1.35-1.3 1.35 2.5 1.3v.45l-1.8 1.25.7 1.1.1.7-.9.4-1.7.35.2 1.15-.6-1.95q-.2-.95.7-1.7l.25-.2-.05-.65q-.3-.95.1-1.8Q13.3 10 13 8.2l-2.85.25-.9-.55-.95-1.05q-1.35.95-3.05.9-1.45-.3-2.3-1.45-1 .85-2.25.65L-.7 6.5q-1.7 1.75-3.65.35L-6.15 8l-1.4-.45L-9 8.3l-2.7-.05q.1.75-.8 1.1l-1.45.15-.45-.3.2.4-.6 1-.95.1-.3 2.15-1.55-.5.9-1.7-1.15-1.4.25-.8.9-.5.55-.2h.05l1.55.1.2-1.35.65-.2" fill="#fff" fill-rule="evenodd" transform="translate(18.35 19.95)"/><path d="m-16.05 12.85.3-2.15.95-.1.6-1-.2-.4.45.3 1.45-.15q.9-.35.8-1.1l2.7.05 1.45-.75 1.4.45 1.8-1.15Q-2.4 8.25-.7 6.5l1.4.45q1.25.2 2.25-.65.85 1.15 2.3 1.45 1.7.05 3.05-.9l.95 1.05.9.55L13 8.2q.3 1.8 2.25 2.15-.4.85-.1 1.8l.05.65-.25.2q-.9.75-.7 1.7l-2.2-4.3q-5.9-1.45-12-1.45-4.65 0-9 .95l-3.1.7-2.9 4-1.1-.05-.3-.2-.05-.2v-.35l.15-.4.2-.55" fill="#98afc0" fill-rule="evenodd" transform="translate(18.35 19.95)"/><path d="M12.2-13.7Q5.7-8.45.75-1.3q-4.55-7.65-11.6-11.8-2.25 7.65-1.7 14.25L-13.7 6.3m27.8 1.25L13.05 1.7v-.1q1.3-8.2-.85-15.3Z" fill="none" stroke="#600" stroke-linecap="round" stroke-linejoin="round" transform="translate(18.35 19.95)"/><path d="m3.5 9.05 8.05 1.35 1.7 2.85-2.85-.1-.9-.55-.95-1.05q-1.35 1-3 .9Q4.1 12.15 3.2 11q-1 .85-2.2.65l-1.45-.45q-1.7 1.75-3.65.35l-1.8 1.15-1.35-.45-1.5.75-2.7-.05q.05.75-.8 1.1l-1.45.15.15-.8 1.65-2.7.35-.2.1-.35q5.15-1.35 15.1-1.3l-.15.2m-15.25 2.35-.1.15h.1v-.15" fill="#004166" fill-opacity=".4" fill-rule="evenodd" transform="translate(18.35 19.95)"/><path d="m14.15 7.5 1.75-.25 1.15 1.35-1.3 1.35 2.5 1.3v.45l-1.8 1.25.7 1.1.1.7-.9.4-2.3.45q-.75-2.6-2.6-5.2Q6.15 8.95.05 8.95q-4.65 0-9 .95l-3.1.7q-1.6 1.85-2.6 4.45l-1.4-.5-.3-.2-.05-.2v-.35l.15-.4.2-.55-1.55-.5.9-1.7-1.15-1.4.25-.8.9-.5.55-.2h.05l1.55.1.2-1.35.9-.3" fill="none" stroke="#5280c4" stroke-linecap="round" stroke-linejoin="round" transform="translate(18.35 19.95)"/><path d="M-7.6-14.3q-1.2.15-1.5-.2-.5 2.45-1.2.5.1 1.05-.8 1.6l-.3.2-.55.2q-.95.25-.8-1.3-2.15.95-2-2-1.95-2.55 1.6-2.25-.05-1.8 1.6-1.9 1.35-.05 1.4 1.4l.3-.65q.5-1 1.4-.5 1.65.95.85 2.45 1.1.1 1.15 1.45 0 1.35-1.15 1" fill="#fff" fill-rule="evenodd" transform="translate(18.35 19.95)"/><path d="M-14.75-15.3q-.15 2.95 2 2-.15 1.55.8 1.3l.55-.2.3-.2q.9-.55.8-1.6.7 1.95 1.2-.5.3.35 1.5.2.9 1.4.65 2.1-.25.55-1.15.65h-.85q.25.65-.1 1.35-.15.35-.45.4-1.75.25-1.95-.85-.05.4-.25.7l-.25.35q-.35.3-1.05.2-1.4-.2-.7-1.5l-1.1-.1q-1.45-.7-.2-1.9-.85-.1-1.05-.8-.4-1.65 1.3-1.6" fill="#98afc0" fill-rule="evenodd" transform="translate(18.35 19.95)"/><path d="M-7.6-14.3q1.15.35 1.15-1-.05-1.35-1.15-1.45.8-1.5-.85-2.45-.9-.5-1.4.5l-.3.65q-.05-1.45-1.4-1.4-1.65.1-1.6 1.9-3.55-.3-1.6 2.25-1.7-.05-1.3 1.6.2.7 1.05.8-1.25 1.2.2 1.9l1.1.1q-.7 1.3.7 1.5.7.1 1.05-.2l.25-.35m3.6-1.6q.9-.1 1.15-.65.25-.7-.65-2.1Z" fill="none" stroke="#5280c4" stroke-linecap="round" stroke-linejoin="round" transform="translate(18.35 19.95)"/><path d="M8.75-15.15q-1.95-2.55 1.6-2.25-.05-1.8 1.6-1.9 1.35-.05 1.4 1.4l.3-.65q.5-1 1.4-.5 1.65.95.85 2.45 1.1.1 1.15 1.45 0 1.35-1.15 1l-1.5-.2q-.5 2.45-1.2.5.1 1.05-.8 1.6-1.85 1.2-1.65-.9-2.15.95-2-2" fill="#fff" fill-rule="evenodd" transform="translate(18.35 19.95)"/><path d="M8.75-15.15q-.15 2.95 2 2-.2 2.1 1.65.9.9-.55.8-1.6.7 1.95 1.2-.5l1.5.2q1.85 3-1.35 2.75.25.65-.1 1.35l-.45.4h-1.1l-.35-.1q-.4-.25-.5-.75-.25 1.45-1.55 1.25-1.4-.2-.7-1.5-.4.15-.95 0l-.15-.1-.35-.2q-.9-.7.15-1.7-.85-.1-1.05-.8-.4-1.65 1.3-1.6" fill="#98afc0" fill-rule="evenodd" transform="translate(18.35 19.95)"/><path d="M15.9-14.15q1.15.35 1.15-1Q17-16.5 15.9-16.6q.8-1.5-.85-2.45-.9-.5-1.4.5l-.3.65q-.05-1.45-1.4-1.4-1.65.1-1.6 1.9-3.55-.3-1.6 2.25-1.7-.05-1.3 1.6.2.7 1.05.8-1.05 1-.15 1.7l.35.2.15.1m7.05-3.4q1.85 3-1.35 2.75.25.65-.1 1.35l-.45.4h-1.1" fill="none" stroke="#5280c4" stroke-linecap="round" stroke-linejoin="round" transform="translate(18.35 19.95)"/></g></defs></svg>

<?xml version="1.0" encoding="UTF-8" standalone="no"?>
<svg xmlns:xlink="http://www.w3.org/1999/xlink" height="92.9px" width="100.7px" xmlns="http://www.w3.org/2000/svg">
  <g transform="matrix(1.0, 0.0, 0.0, 1.0, 38.65, 49.75)">
    <use height="36.6" transform="matrix(1.0, 0.0, 0.0, 1.0, -18.35, -19.95)" width="37.1" xlink:href="#shape0"/>
  </g>
  <defs>
    <g id="shape0" transform="matrix(1.0, 0.0, 0.0, 1.0, 18.35, 19.95)">
      <path d="M8.95 5.1 Q10.65 3.15 8.7 2.65 6.75 2.15 5.9 1.55 5.05 0.9 5.3 0.6 L7.25 0.95 8.6 1.25 9.95 0.9 10.5 -3.0 10.9 -6.2 Q11.05 -7.95 12.2 -13.7 14.35 -6.6 13.05 1.6 L13.05 1.65 13.05 1.7 14.1 7.55 13.55 7.6 13.5 6.3 10.9 6.35 10.6 5.25 9.95 4.75 8.95 5.1 M0.75 -1.3 L0.25 -0.05 -1.05 1.6 Q-2.05 2.6 -3.25 3.3 L-4.1 3.5 -3.7 2.35 Q-2.55 0.5 -3.9 -1.25 -5.05 -2.8 -5.8 -4.5 -6.5 -6.05 -7.55 -7.45 L-10.85 -13.1 Q-3.8 -8.95 0.75 -1.3" fill="#990000" fill-rule="evenodd" stroke="none"/>
      <path d="M12.2 -13.7 Q11.05 -7.95 10.9 -6.2 L10.5 -3.0 9.95 0.9 8.6 1.25 7.25 0.95 5.3 0.6 Q5.05 0.9 5.9 1.55 6.75 2.15 8.7 2.65 10.65 3.15 8.95 5.1 L7.7 5.5 Q7.7 4.6 6.8 4.05 L6.35 3.85 4.0 4.85 Q3.25 4.25 2.4 4.5 L0.35 4.9 0.05 5.15 Q-2.3 4.65 -4.25 5.75 L-6.1 5.05 -8.0 6.15 Q-9.95 4.65 -11.55 6.35 L-12.05 6.85 -13.45 6.2 -13.7 6.3 -12.55 1.15 Q-13.1 -5.45 -10.85 -13.1 L-7.55 -7.45 Q-6.5 -6.05 -5.8 -4.5 -5.05 -2.8 -3.9 -1.25 -2.55 0.5 -3.7 2.35 L-4.1 3.5 -3.25 3.3 Q-2.05 2.6 -1.05 1.6 L0.25 -0.05 0.75 -1.3 Q5.7 -8.45 12.2 -13.7" fill="#cc0000" fill-rule="evenodd" stroke="none"/>
      <path d="M-13.7 6.3 L-13.45 6.2 -12.05 6.85 -11.55 6.35 Q-9.95 4.65 -8.0 6.15 L-6.1 5.05 -4.25 5.75 Q-2.3 4.65 0.05 5.15 L0.35 4.9 2.4 4.5 Q3.25 4.25 4.0 4.85 L6.35 3.85 6.8 4.05 Q7.7 4.6 7.7 5.5 L8.95 5.1 9.95 4.75 10.6 5.25 10.9 6.35 13.5 6.3 13.55 7.6 14.1 7.55 15.9 7.25 17.05 8.6 15.75 9.95 18.25 11.25 18.25 11.7 16.45 12.95 17.15 14.05 17.25 14.75 16.35 15.15 14.65 15.5 14.85 16.65 14.25 14.7 Q14.05 13.75 14.95 13.0 L15.2 12.8 15.15 12.15 Q14.85 11.2 15.25 10.35 13.3 10.0 13.0 8.2 L10.15 8.45 9.25 7.9 8.3 6.85 Q6.95 7.8 5.25 7.75 3.8 7.45 2.95 6.3 1.95 7.15 0.7 6.95 L-0.7 6.5 Q-2.4 8.25 -4.35 6.85 L-6.15 8.0 -7.55 7.55 -9.0 8.3 -11.7 8.25 Q-11.6 9.0 -12.5 9.35 L-13.95 9.5 -14.4 9.2 -14.2 9.6 -14.8 10.6 -15.75 10.7 -16.05 12.85 -17.6 12.35 -16.7 10.65 -17.85 9.25 -17.6 8.45 -16.7 7.95 -16.15 7.75 -16.1 7.75 -14.55 7.85 -14.35 6.5 -13.7 6.3" fill="#ffffff" fill-rule="evenodd" stroke="none"/>
      <path d="M-16.05 12.85 L-15.75 10.7 -14.8 10.6 -14.2 9.6 -14.4 9.2 -13.95 9.5 -12.5 9.35 Q-11.6 9.0 -11.7 8.25 L-9.0 8.3 -7.55 7.55 -6.15 8.0 -4.35 6.85 Q-2.4 8.25 -0.7 6.5 L0.7 6.95 Q1.95 7.15 2.95 6.3 3.8 7.45 5.25 7.75 6.95 7.8 8.3 6.85 L9.25 7.9 10.15 8.45 13.0 8.2 Q13.3 10.0 15.25 10.35 14.85 11.2 15.15 12.15 L15.2 12.8 14.95 13.0 Q14.05 13.75 14.25 14.7 L12.05 10.4 Q6.15 8.95 0.05 8.95 -4.6 8.95 -8.95 9.9 L-12.05 10.6 -14.95 14.6 -16.05 14.55 -16.35 14.35 -16.4 14.15 -16.4 13.8 -16.25 13.4 -16.05 12.85" fill="#98afc0" fill-rule="evenodd" stroke="none"/>
      <path d="M12.2 -13.7 Q5.7 -8.45 0.75 -1.3 -3.8 -8.95 -10.85 -13.1 -13.1 -5.45 -12.55 1.15 L-13.7 6.3 M14.1 7.55 L13.05 1.7 13.05 1.65 13.05 1.6 Q14.35 -6.6 12.2 -13.7 Z" fill="none" stroke="#660000" stroke-linecap="round" stroke-linejoin="round" stroke-width="1.0"/>
      <path d="M3.5 9.05 L11.55 10.4 13.25 13.25 10.4 13.15 9.5 12.6 8.55 11.55 Q7.2 12.55 5.55 12.45 4.1 12.15 3.2 11.0 2.2 11.85 1.0 11.65 L-0.45 11.2 Q-2.15 12.95 -4.1 11.55 L-5.9 12.7 -7.25 12.25 -8.75 13.0 -11.45 12.95 Q-11.4 13.7 -12.25 14.05 L-13.7 14.2 -13.55 13.4 -11.9 10.7 -11.55 10.5 -11.45 10.15 Q-6.3 8.8 3.65 8.85 L3.5 9.05 M-11.75 11.4 L-11.85 11.55 -11.75 11.55 -11.75 11.4" fill="#004166" fill-opacity="0.4" fill-rule="evenodd" stroke="none"/>
      <path d="M14.15 7.5 L15.9 7.25 17.05 8.6 15.75 9.95 18.25 11.25 18.25 11.7 16.45 12.95 17.15 14.05 17.25 14.75 16.35 15.15 14.05 15.6 Q13.3 13.0 11.45 10.4 6.15 8.95 0.05 8.95 -4.6 8.95 -8.95 9.9 L-12.05 10.6 Q-13.65 12.45 -14.65 15.05 L-16.05 14.55 -16.35 14.35 -16.4 14.15 -16.4 13.8 -16.25 13.4 -16.05 12.85 -17.6 12.35 -16.7 10.65 -17.85 9.25 -17.6 8.45 -16.7 7.95 -16.15 7.75 -16.1 7.75 -14.55 7.85 -14.35 6.5 -13.45 6.2" fill="none" stroke="#5280c4" stroke-linecap="round" stroke-linejoin="round" stroke-width="1.0"/>
      <path d="M-7.6 -14.3 Q-8.8 -14.15 -9.1 -14.5 -9.6 -12.05 -10.3 -14.0 -10.2 -12.95 -11.1 -12.4 L-11.4 -12.2 -11.95 -12.0 Q-12.9 -11.75 -12.75 -13.3 -14.9 -12.35 -14.75 -15.3 -16.7 -17.85 -13.15 -17.55 -13.2 -19.35 -11.55 -19.45 -10.2 -19.5 -10.15 -18.05 L-9.85 -18.7 Q-9.35 -19.7 -8.45 -19.2 -6.8 -18.25 -7.6 -16.75 -6.5 -16.65 -6.45 -15.3 -6.45 -13.95 -7.6 -14.3" fill="#ffffff" fill-rule="evenodd" stroke="none"/>
      <path d="M-14.75 -15.3 Q-14.9 -12.35 -12.75 -13.3 -12.9 -11.75 -11.95 -12.0 L-11.4 -12.2 -11.1 -12.4 Q-10.2 -12.95 -10.3 -14.0 -9.6 -12.05 -9.1 -14.5 -8.8 -14.15 -7.6 -14.3 -6.7 -12.9 -6.95 -12.2 -7.2 -11.65 -8.1 -11.55 L-8.95 -11.55 Q-8.7 -10.9 -9.05 -10.2 -9.2 -9.85 -9.5 -9.8 -11.25 -9.55 -11.45 -10.65 -11.5 -10.25 -11.7 -9.95 L-11.95 -9.6 Q-12.3 -9.3 -13.0 -9.4 -14.4 -9.6 -13.7 -10.9 L-14.8 -11.0 Q-16.25 -11.7 -15.0 -12.9 -15.85 -13.0 -16.05 -13.7 -16.45 -15.35 -14.75 -15.3" fill="#98afc0" fill-rule="evenodd" stroke="none"/>
      <path d="M-7.6 -14.3 Q-6.45 -13.95 -6.45 -15.3 -6.5 -16.65 -7.6 -16.75 -6.8 -18.25 -8.45 -19.2 -9.35 -19.7 -9.85 -18.7 L-10.15 -18.05 Q-10.2 -19.5 -11.55 -19.45 -13.2 -19.35 -13.15 -17.55 -16.7 -17.85 -14.75 -15.3 -16.45 -15.35 -16.05 -13.7 -15.85 -13.0 -15.0 -12.9 -16.25 -11.7 -14.8 -11.0 L-13.7 -10.9 Q-14.4 -9.6 -13.0 -9.4 -12.3 -9.3 -11.95 -9.6 L-11.7 -9.95 M-8.1 -11.55 Q-7.2 -11.65 -6.95 -12.2 -6.7 -12.9 -7.6 -14.3 Z" fill="none" stroke="#5280c4" stroke-linecap="round" stroke-linejoin="round" stroke-width="1.0"/>
      <path d="M8.75 -15.15 Q6.8 -17.7 10.35 -17.4 10.3 -19.2 11.95 -19.3 13.3 -19.35 13.35 -17.9 L13.65 -18.55 Q14.15 -19.55 15.05 -19.05 16.7 -18.1 15.9 -16.6 17.0 -16.5 17.05 -15.15 17.05 -13.8 15.9 -14.15 L14.4 -14.35 Q13.9 -11.9 13.2 -13.85 13.3 -12.8 12.4 -12.25 10.55 -11.05 10.75 -13.15 8.6 -12.2 8.75 -15.15" fill="#ffffff" fill-rule="evenodd" stroke="none"/>
      <path d="M8.75 -15.15 Q8.6 -12.2 10.75 -13.15 10.55 -11.05 12.4 -12.25 13.3 -12.8 13.2 -13.85 13.9 -11.9 14.4 -14.35 L15.9 -14.15 Q17.75 -11.15 14.55 -11.4 14.8 -10.75 14.45 -10.05 L14.0 -9.65 12.9 -9.65 12.55 -9.75 Q12.15 -10.0 12.05 -10.5 11.8 -9.05 10.5 -9.25 9.1 -9.45 9.8 -10.75 9.4 -10.6 8.85 -10.75 L8.7 -10.85 8.35 -11.05 Q7.45 -11.75 8.5 -12.75 7.65 -12.85 7.45 -13.55 7.05 -15.2 8.75 -15.15" fill="#98afc0" fill-rule="evenodd" stroke="none"/>
      <path d="M15.9 -14.15 Q17.05 -13.8 17.05 -15.15 17.0 -16.5 15.9 -16.6 16.7 -18.1 15.05 -19.05 14.15 -19.55 13.65 -18.55 L13.35 -17.9 Q13.3 -19.35 11.95 -19.3 10.3 -19.2 10.35 -17.4 6.8 -17.7 8.75 -15.15 7.05 -15.2 7.45 -13.55 7.65 -12.85 8.5 -12.75 7.45 -11.75 8.35 -11.05 L8.7 -10.85 8.85 -10.75 M15.9 -14.15 Q17.75 -11.15 14.55 -11.4 14.8 -10.75 14.45 -10.05 L14.0 -9.65 12.9 -9.65" fill="none" stroke="#5280c4" stroke-linecap="round" stroke-linejoin="round" stroke-width="1.0"/>
    </g>
  </defs>
</svg>
